public/operators/nobg/sportsbet.svg

<svg width="131" height="23" viewBox="0 0 131 23" fill="none" xmlns="http://www.w3.org/2000/svg">
<path fill-rule="evenodd" clip-rule="evenodd" d="M11.401 22.1153C17.5163 22.1153 22.4523 17.1765 22.4523 11.0577C22.4523 4.9388 17.5163 0 11.401 0C5.28559 0 0.349609 4.9388 0.349609 11.0577C0.349609 17.1765 5.28559 22.1153 11.401 22.1153ZM11.401 19.8426C16.2496 19.8426 20.1809 15.909 20.1809 11.0577C20.1809 6.20627 16.2496 2.27272 11.401 2.27272C6.55235 2.27272 2.62103 6.20627 2.62103 11.0577C2.62103 15.909 6.55235 19.8426 11.401 19.8426Z" fill="white"/>
<path d="M5.32911 10.708C8.29944 10.708 10.6582 8.30417 10.6582 5.37586C10.6582 2.44755 8.29944 0 5.32911 0C2.40247 0 0 2.40384 0 5.33215C0 8.26047 2.40247 10.708 5.32911 10.708Z" fill="#0CD664"/>
<path d="M30.6206 8.17304C30.6206 8.69752 30.8827 9.17829 31.4506 9.48423C31.9748 9.83388 32.8484 10.0961 34.0278 10.3584C35.5566 10.6643 36.736 11.1888 37.4786 11.8881C38.2212 12.5874 38.6143 13.5052 38.6143 14.6853C38.6143 15.8653 38.1338 16.9143 37.1728 17.7447C36.2118 18.5751 34.9451 19.0122 33.3726 19.0122C31.7127 19.0122 30.3585 18.5751 29.3976 17.7884C28.3929 16.958 27.7814 15.8653 27.4756 14.5104L29.7907 13.3304C30.2275 15.5594 31.4069 16.6957 33.3289 16.6957C34.1151 16.6957 34.7704 16.5209 35.2072 16.1713C35.6877 15.8216 35.9061 15.3409 35.9061 14.7727C35.9061 14.1608 35.644 13.68 35.0761 13.3304C34.5083 12.9807 33.6346 12.6748 32.4116 12.4562C31.0574 12.194 30.0091 11.7132 29.2228 11.0139C28.4366 10.3146 28.0434 9.39682 28.0434 8.26046C28.0434 7.1241 28.4803 6.16256 29.4412 5.46326C30.3585 4.76396 31.5379 4.41431 33.0231 4.41431C35.6877 4.41431 37.4786 5.63809 38.3522 7.99822L36.2555 9.13458C35.6877 7.47375 34.5956 6.64333 32.9357 6.64333C32.2805 6.64333 31.7127 6.77445 31.2322 6.99298C30.839 7.29892 30.6206 7.64857 30.6206 8.17304ZM39.7063 22.8146V8.74122H42.2398V10.1835C42.5893 9.65905 43.0698 9.2657 43.6813 8.95976C44.2929 8.65381 44.9918 8.47899 45.6907 8.47899C47.0011 8.47899 48.0931 8.95976 48.9668 9.92129C49.8404 10.8828 50.2772 12.1503 50.2772 13.7674C50.2772 15.3409 49.8404 16.6083 48.8794 17.5699C47.9621 18.5751 46.8264 19.0122 45.4723 19.0122C44.1181 19.0122 43.0698 18.4877 42.2398 17.4825V22.8146H39.7063ZM46.9137 11.6695C46.3896 11.1014 45.6907 10.8391 44.9044 10.8391C44.0745 10.8391 43.4629 11.1014 42.8951 11.6695C42.3709 12.2377 42.0651 12.8933 42.0651 13.7237C42.0651 14.5541 42.3272 15.2097 42.8951 15.7779C43.4192 16.3461 44.1181 16.6083 44.9044 16.6083C45.7344 16.6083 46.3459 16.3461 46.9137 15.7779C47.4379 15.2097 47.7437 14.5541 47.7437 13.7237C47.7 12.8933 47.4379 12.2377 46.9137 11.6695ZM60.1492 9.83388C61.2412 10.7517 61.7654 12.0629 61.7654 13.68C61.7654 15.2971 61.2412 16.6083 60.1492 17.5262C59.1008 18.444 57.7904 18.9248 56.3052 18.9248C54.8637 18.9248 53.5533 18.444 52.4613 17.5262C51.4129 16.6083 50.8451 15.2971 50.8451 13.68C50.8451 12.0629 51.3692 10.7517 52.4613 9.83388C53.5096 8.91605 54.82 8.43528 56.3052 8.43528C57.8341 8.43528 59.1008 8.91605 60.1492 9.83388ZM54.3396 15.8216C54.9074 16.3461 55.5626 16.6083 56.3489 16.6083C57.1352 16.6083 57.7904 16.3461 58.3582 15.8216C58.9261 15.2971 59.1882 14.5979 59.1882 13.7237C59.1882 12.8496 58.9261 12.1503 58.3582 11.6258C57.7904 11.1014 57.1352 10.8391 56.3489 10.8391C55.5626 10.8391 54.9074 11.1014 54.3396 11.6258C53.7717 12.1503 53.5096 12.8496 53.5096 13.7237C53.5096 14.5979 53.7717 15.2971 54.3396 15.8216ZM69.1475 8.5664V10.9265C68.8854 10.7954 68.2302 10.8391 67.9244 10.8391C67.1818 10.8391 66.614 11.1014 66.1772 11.6695C65.7404 12.2377 65.522 12.937 65.522 13.7674V18.7062H62.9884V8.74122H65.522V10.3146C66.1335 9.09087 67.0508 8.43528 68.3176 8.43528C68.5796 8.43528 68.8854 8.52269 69.1475 8.5664ZM70.4143 8.74122V6.03144H72.9478V8.74122H75.1318V10.7954H72.9478V15.2971C72.9478 16.215 73.3846 16.6957 74.2145 16.6957C74.4766 16.6957 74.7824 16.652 75.0445 16.5646L75.3066 18.6625C74.7824 18.8811 74.2582 18.9248 73.603 18.9248C71.4626 18.9248 70.4143 17.8758 70.4143 15.7342V10.7954V8.74122ZM78.539 11.1888C78.539 11.8007 79.3252 12.2814 80.8978 12.5874C82.0335 12.8496 82.9071 13.1993 83.4313 13.68C83.9554 14.1608 84.2175 14.8164 84.2175 15.6468C84.2175 16.6083 83.8681 17.395 83.1692 18.0506C82.4703 18.6625 81.5093 18.9685 80.2862 18.9685C79.1505 18.9685 78.1895 18.7062 77.4033 18.1381C76.6607 17.5699 76.0928 16.8706 75.6997 15.9964L77.709 14.6853C77.9274 15.3409 78.2769 15.8653 78.7137 16.2587C79.1505 16.652 79.6747 16.8706 80.2862 16.8706C80.723 16.8706 81.0725 16.7832 81.3783 16.6083C81.684 16.3898 81.8587 16.1276 81.8587 15.7779C81.8587 15.472 81.684 15.166 81.3346 15.0349C80.9851 14.8164 80.4609 14.6853 79.7184 14.5104C77.4033 14.0734 76.2675 13.0244 76.2675 11.4073C76.2675 10.4895 76.617 9.79017 77.3596 9.3094C78.1022 8.78493 78.9758 8.5664 80.0241 8.5664C81.0725 8.5664 81.9461 8.78493 82.5576 9.17829C83.1692 9.57164 83.6934 10.2272 84.1302 11.1014L82.2956 12.194C81.8587 11.0577 81.0725 10.4458 80.0241 10.4458C79.0631 10.3146 78.539 10.5769 78.539 11.1888ZM85.1348 18.7062V4.63285H87.6683V9.965C88.4546 8.95975 89.5466 8.43528 90.9444 8.43528C92.3422 8.43528 93.4343 8.91605 94.3516 9.83388C95.2689 10.7954 95.7057 12.0629 95.7057 13.68C95.7057 15.2971 95.2689 16.5646 94.3079 17.5262C93.3906 18.4877 92.2549 18.9685 90.9008 18.9685C89.503 18.9685 88.4109 18.444 87.6683 17.4388V18.6625L85.1348 18.7062ZM88.3236 15.8216C88.8477 16.3461 89.5466 16.652 90.3329 16.652C91.1628 16.652 91.8181 16.3898 92.3422 15.8216C92.8664 15.2971 93.1285 14.5979 93.1285 13.7237C93.1285 12.8933 92.8664 12.194 92.3422 11.6258C91.8181 11.1014 91.1192 10.7954 90.3329 10.7954C89.503 10.7954 88.8477 11.0577 88.3236 11.6258C87.7994 12.1503 87.5373 12.8496 87.5373 13.7237C87.5373 14.5541 87.7994 15.2534 88.3236 15.8216ZM106.451 14.3356H98.7634C98.8508 15.0786 99.1128 15.7342 99.637 16.1713C100.161 16.6083 100.773 16.8269 101.515 16.8269C102.738 16.8269 103.656 16.215 104.267 14.9912L106.146 16.0839C105.228 18.0069 103.656 19.0122 101.472 19.0122C100.074 19.0122 98.8508 18.5314 97.8461 17.5699C96.8414 16.5646 96.3609 15.2971 96.3609 13.7674C96.3609 12.2377 96.8851 10.9702 97.8898 9.965C98.8944 8.95975 100.161 8.52269 101.603 8.52269C103 8.52269 104.18 9.00346 105.097 9.92129C106.014 10.8391 106.495 12.0629 106.495 13.5052C106.451 13.5052 106.451 14.3356 106.451 14.3356ZM101.515 10.4021C100.86 10.4021 100.292 10.6206 99.8117 11.0139C99.3312 11.4073 98.9818 11.9318 98.8071 12.5H104.136C104.005 11.8444 103.699 11.3199 103.263 10.9702C102.826 10.5769 102.214 10.4021 101.515 10.4021ZM107.238 8.74122V6.03144H109.771V8.74122H111.955V10.7954H109.771V15.2971C109.771 16.215 110.208 16.6957 111.038 16.6957C111.3 16.6957 111.606 16.652 111.868 16.5646L112.13 18.6625C111.606 18.8811 111.081 18.9248 110.426 18.9248C108.286 18.9248 107.238 17.8758 107.238 15.7342V10.7954V8.74122ZM114.27 18.7062C115.013 18.7062 115.624 18.0943 115.624 17.3513C115.624 16.6083 115.013 15.9964 114.27 15.9964C113.528 15.9964 112.916 16.6083 112.916 17.3513C112.916 18.0943 113.528 18.7062 114.27 18.7062ZM116.716 18.7062V8.74122H119.25V18.7062H116.716ZM129.384 9.83388C130.476 10.7517 131 12.0629 131 13.68C131 15.2971 130.476 16.6083 129.384 17.5262C128.336 18.444 127.025 18.9248 125.54 18.9248C124.099 18.9248 122.788 18.444 121.696 17.5262C120.648 16.6083 120.08 15.2971 120.08 13.68C120.08 12.0629 120.604 10.7517 121.696 9.83388C122.744 8.91605 124.055 8.43528 125.54 8.43528C127.025 8.43528 128.292 8.91605 129.384 9.83388ZM123.531 15.8216C124.099 16.3461 124.754 16.6083 125.54 16.6083C126.326 16.6083 126.981 16.3461 127.549 15.8216C128.117 15.2971 128.379 14.5979 128.379 13.7237C128.379 12.8496 128.117 12.1503 127.549 11.6258C126.981 11.1014 126.326 10.8391 125.54 10.8391C124.754 10.8391 124.099 11.1014 123.531 11.6258C122.963 12.1503 122.701 12.8496 122.701 13.7237C122.701 14.5979 122.963 15.2971 123.531 15.8216Z" fill="white"/>
<path d="M116.585 5.98774C116.585 6.73075 117.197 7.34263 117.939 7.34263C118.682 7.34263 119.293 6.73075 119.293 5.98774C119.293 5.24474 118.682 4.63285 117.939 4.63285C117.197 4.63285 116.585 5.20103 116.585 5.98774Z" fill="#0CD664"/>
</svg>

<svg xmlns="http://www.w3.org/2000/svg" width="131" height="23" fill="none"><path fill="#fff" fill-rule="evenodd" d="M11.4 22.12c6.12 0 11.05-4.94 11.05-11.06a11.04 11.04 0 1 0-22.1 0c0 6.12 4.94 11.06 11.05 11.06Zm0-2.28a8.78 8.78 0 1 0 0-17.56 8.78 8.78 0 0 0 0 17.56Z" clip-rule="evenodd"/><path fill="#0CD664" d="M5.33 10.7c2.97 0 5.33-2.4 5.33-5.32A5.36 5.36 0 0 0 5.33 0a5.35 5.35 0 0 0 0 10.7Z"/><path fill="#fff" d="M30.62 8.17c0 .53.26 1 .83 1.31.52.35 1.4.62 2.58.88 1.53.3 2.7.83 3.45 1.53.74.7 1.13 1.62 1.13 2.8 0 1.18-.48 2.22-1.44 3.05a5.62 5.62 0 0 1-3.8 1.27 6.17 6.17 0 0 1-3.97-1.22 5.7 5.7 0 0 1-1.92-3.28l2.31-1.18c.44 2.23 1.62 3.37 3.54 3.37a3 3 0 0 0 1.88-.53c.48-.35.7-.83.7-1.4 0-.6-.27-1.09-.83-1.44a7.84 7.84 0 0 0-2.67-.87A6.54 6.54 0 0 1 29.22 11a3.5 3.5 0 0 1-1.18-2.75c0-1.14.44-2.1 1.4-2.8.92-.7 2.1-1.05 3.58-1.05 2.67 0 4.46 1.23 5.33 3.59l-2.1 1.13c-.56-1.66-1.65-2.49-3.31-2.49-.66 0-1.23.13-1.7.35-.4.3-.62.66-.62 1.18Zm9.09 14.64V8.74h2.53v1.44a3.6 3.6 0 0 1 1.44-1.22c.61-.3 1.31-.48 2.01-.48 1.31 0 2.4.48 3.28 1.44a5.48 5.48 0 0 1 1.3 3.85c0 1.57-.43 2.84-1.4 3.8a4.37 4.37 0 0 1-3.4 1.44c-1.35 0-2.4-.52-3.23-1.53v5.33h-2.53Zm7.2-11.14a2.64 2.64 0 0 0-2-.83c-.84 0-1.45.26-2.01.83a2.9 2.9 0 0 0-.83 2.05c0 .83.26 1.49.83 2.06.52.57 1.22.83 2 .83.83 0 1.45-.26 2.01-.83a2.9 2.9 0 0 0 .83-2.06 3.11 3.11 0 0 0-.83-2.05Zm13.24-1.84a4.77 4.77 0 0 1 1.62 3.85c0 1.62-.53 2.93-1.62 3.85a5.7 5.7 0 0 1-3.84 1.4 5.86 5.86 0 0 1-3.85-1.4 4.91 4.91 0 0 1-1.61-3.85c0-1.62.52-2.93 1.61-3.85a5.7 5.7 0 0 1 3.85-1.4c1.52 0 2.8.49 3.84 1.4Zm-5.81 6c.57.52 1.22.78 2 .78.8 0 1.45-.26 2.02-.79a2.7 2.7 0 0 0 .83-2.1 2.7 2.7 0 0 0-.83-2.1 2.84 2.84 0 0 0-2.01-.78c-.79 0-1.44.26-2.01.79a2.7 2.7 0 0 0-.83 2.1c0 .87.26 1.57.83 2.1Zm14.8-7.26v2.36c-.25-.13-.91-.1-1.22-.1-.74 0-1.3.27-1.74.84a3.34 3.34 0 0 0-.66 2.1v4.94H63V8.74h2.53v1.57c.61-1.22 1.53-1.87 2.8-1.87.26 0 .57.08.83.13Zm1.27.17v-2.7h2.54v2.7h2.18v2.06h-2.18v4.5c0 .91.43 1.4 1.26 1.4.27 0 .57-.05.83-.14l.27 2.1c-.53.22-1.05.26-1.7.26-2.15 0-3.2-1.04-3.2-3.19V8.74Zm8.13 2.45c0 .61.79 1.1 2.36 1.4 1.13.26 2 .6 2.53 1.09.53.48.79 1.14.79 1.97 0 .96-.35 1.74-1.05 2.4-.7.61-1.66.92-2.88.92-1.14 0-2.1-.26-2.89-.83A5.47 5.47 0 0 1 75.7 16l2-1.31c.23.65.58 1.18 1.01 1.57.44.4.96.61 1.58.61.43 0 .78-.09 1.09-.26.3-.22.48-.48.48-.83 0-.3-.18-.61-.53-.75a5.8 5.8 0 0 0-1.61-.52c-2.32-.44-3.45-1.49-3.45-3.1 0-.92.35-1.62 1.09-2.1a4.45 4.45 0 0 1 2.66-.74c1.05 0 1.93.21 2.54.6.6.4 1.13 1.06 1.57 1.93l-1.83 1.1c-.44-1.14-1.23-1.75-2.28-1.75-.96-.14-1.48.13-1.48.74Zm6.6 7.52V4.63h2.53v5.33c.78-1 1.88-1.52 3.27-1.52 1.4 0 2.5.48 3.41 1.4a5.3 5.3 0 0 1 1.36 3.84c0 1.62-.44 2.88-1.4 3.85a4.52 4.52 0 0 1-3.4 1.44 3.8 3.8 0 0 1-3.24-1.53v1.22l-2.54.05Zm3.18-2.89a2.8 2.8 0 0 0 2.01.83c.83 0 1.49-.26 2.01-.83.53-.52.79-1.22.79-2.1 0-.83-.26-1.53-.79-2.1a2.8 2.8 0 0 0-2-.82c-.84 0-1.5.26-2.02.83a2.84 2.84 0 0 0-.78 2.1c0 .82.26 1.52.78 2.1Zm18.13-1.48h-7.69c.1.74.35 1.4.88 1.83.52.44 1.13.66 1.88.66 1.22 0 2.14-.61 2.75-1.84l1.88 1.1a4.84 4.84 0 0 1-4.68 2.92c-1.4 0-2.62-.48-3.62-1.44-1-1-1.49-2.27-1.49-3.8 0-1.53.53-2.8 1.53-3.8 1-1.01 2.27-1.45 3.71-1.45a4.77 4.77 0 0 1 4.9 4.99c-.05 0-.05.83-.05.83Zm-4.94-3.94c-.65 0-1.22.22-1.7.61-.48.4-.83.92-1 1.49h5.33a2.56 2.56 0 0 0-.88-1.53 2.55 2.55 0 0 0-1.75-.57Zm5.73-1.66v-2.7h2.53v2.7h2.19v2.06h-2.19v4.5c0 .91.44 1.4 1.27 1.4.26 0 .57-.05.83-.14l.26 2.1c-.52.22-1.05.26-1.7.26-2.14 0-3.2-1.04-3.2-3.19V8.74Zm7.03 9.97c.74 0 1.35-.62 1.35-1.36 0-.74-.6-1.35-1.35-1.35-.74 0-1.35.6-1.35 1.35 0 .74.6 1.36 1.35 1.36Zm2.45 0V8.74h2.53v9.97h-2.53Zm12.66-8.88a4.77 4.77 0 0 1 1.62 3.85c0 1.62-.52 2.93-1.62 3.85a5.7 5.7 0 0 1-3.84 1.4 5.86 5.86 0 0 1-3.84-1.4 4.91 4.91 0 0 1-1.62-3.85c0-1.62.52-2.93 1.62-3.85a5.7 5.7 0 0 1 3.84-1.4c1.48 0 2.75.49 3.84 1.4Zm-5.85 6c.57.52 1.22.78 2.01.78.79 0 1.44-.26 2-.79a2.7 2.7 0 0 0 .84-2.1 2.7 2.7 0 0 0-.83-2.1 2.84 2.84 0 0 0-2.01-.78c-.79 0-1.44.26-2 .79a2.7 2.7 0 0 0-.84 2.1c0 .87.26 1.57.83 2.1Z"/><path fill="#0CD664" d="M116.58 5.99c0 .74.62 1.35 1.36 1.35.74 0 1.35-.6 1.35-1.35 0-.75-.6-1.36-1.35-1.36-.74 0-1.36.57-1.36 1.36Z"/></svg>
